svgs/sharp-solid/pallet-boxes.svg

<svg xmlns="http://www.w3.org/2000/svg" viewBox="0 0 640 512"><!--! Font Awesome Pro 6.6.0 by @fontawesome - https://fontawesome.com License - https://fontawesome.com/license (Commercial License) Copyright 2024 Fonticons, Inc. --><path d="M64 0L320 0l0 256L64 256 64 0zM384 64l192 0 0 192-192 0 0-192zM0 320l32 0 32 0 32 0 32 0 160 0 32 0 32 0 160 0 32 0 32 0 32 0 32 0 0 64-32 0-32 0 0 64 32 0 32 0 0 64-32 0-32 0-32 0-32 0-160 0-32 0-32 0-160 0-32 0-32 0-32 0L0 512l0-64 32 0 32 0 0-64-32 0L0 384l0-64zM128 448l160 0 0-64-160 0 0 64zm224 0l160 0 0-64-160 0 0 64z"/></svg>

<svg xmlns="http://www.w3.org/2000/svg" viewBox="0 0 640 512"><!--! Font Awesome Pro 6.4.0 by @fontawesome - https://fontawesome.com License - https://fontawesome.com/license (Commercial License) Copyright 2023 Fonticons, Inc. --><path d="M64 0H320V256H64V0zM384 64H576V256H384V64zM0 320H32 64 96h32H288h32 32H512h32 32 32 32v64H608 576v64h32 32v64H608 576 544 512 352 320 288 128 96 64 32 0V448H32 64V384H32 0V320zM128 448H288V384H128v64zm224 0H512V384H352v64z"/></svg>
